X:480
T:The hangmans noose
R:Hornpipe
O:Ireland
C:Frank McCollum
D:Session tape - Cross Keys, Antrim 1993
S:Ciaran Kelly, Moneymore, Derry (Accordian)
S:Bernie Stocks
Z:Transcription:Bernie Stocks, chords:Mike Long
M:4/4
L:1/8
K:G
DF|\
"G"G2BG DGBd|g2fg d3e|"F"=f2fe fdcA|"F/C"c2cB "D"cAFA|\
"G"G2BG DGBd|
"G"g2fg "D"d3e|"F"=f2fe fdcA|"G"GB"D"AF "G"G2:|\
|:Bc|\
"G"dg~g2 dgBg|"G"dg~g2 "D"a2ga|
"G"bggf gdBd|"F"cBAG "D"A2Bc|\
"G"dg~g2 dgBg|"G"dg~g2 "D"a2ga|"G"bggf "C"gdBc|"G"B2G2 G2:|
